teeny/solid/tv.svg

<svg width="15" height="15" viewBox="0 0 15 15" fill="none" xmlns="http://www.w3.org/2000/svg">
<path d="M1.5 1C0.671573 1 0 1.67157 0 2.5V10.5C0 11.3284 0.671573 12 1.5 12H2V13H1V14H4V13H3V12L12 12V13H11V14H14V13H13V12H13.5C14.3284 12 15 11.3284 15 10.5V2.5C15 1.67157 14.3284 1 13.5 1H1.5Z" fill="black"/>
</svg>

<svg viewBox="0 0 15 15" xmlns="http://www.w3.org/2000/svg"><path d="M1.5 1C.67 1 0 1.67 0 2.5v8c0 .82.67 1.5 1.5 1.5H2v1H1v1h3v-1H3v-1h9v1h-1v1h3v-1h-1v-1h.5c.82 0 1.5-.68 1.5-1.5v-8c0-.83-.68-1.5-1.5-1.5h-12Z"/></svg>
